!!!COM: Haydn, Franz Joseph
!!!OTL: String Quartet in G Major
!!!OPS: Opus 17
!!!ONM: No. 5
!!!OMD: Moderato
!!!OMV: 1
!!!SCT: H III:29
!!!SCA: Thematisch-bibliographisches Werkevererzeichnis (A. van Hoboken)
!!!YOR: Trautwein Edition
!!!ENC: Frances Bennion
!!!CDT: 1732/3/31/-1809/5/31/
!!!CNT: Oesterreich
!!!YEC: Copyright (c) 1994, 2000 Center for Computer Assisted Research in the Humanities
!!!YEM: Rights to all derivative editions reserved.
!!!YEM: Refer to licensing agreement for further details.
!!!YEN: United States of America
**kern	**kern	**kern	**kern
*k[f#]	*k[f#]	*k[f#]	*k[f#]
*G:	*G:	*G:	*G:
*clefF4	*clefC3	*clefG	*clefG
*M4/4	*M4/4	*M4/4	*M4/4
2..r	2..r	2..r	2..r
8r	8r	8r	8d
=1	=1	=1	=1
4GG	4d	8B	4g
.	.	8B	.
4r	4r	8c	32a
.	.	.	16.cc
.	.	8d	32f#
.	.	.	16.a
4GG	4d	4B	32g
.	.	.	16.b
.	.	.	8d
4r	4r	8r	8r
.	.	16b	16dd
.	.	16d	16b
=2	=2	=2	=2
8GG	4.G	4d	4b
8G	.	.	.
8G	.	8e	8cc
8G	8G	8e	16b
.	.	.	16cc
8GG	8G	8e	8cc
8G	8c	8f#	8a
8G	8c	8f#	8a
8G	16cc	8f#	16ee
.	16a	.	16cc
=3	=3	=3	=3
8GG	8a	8f#	8cc
8G	8g	8g	8b
4G	4g	8g	8b
.	.	16ee	16gg
.	.	16cc	16ee
2r	2r	4b	4dd
.	.	4r	8r
.	.	.	8d
=4	=4	=4	=4
4GG	4d	8B	4g
.	.	8B	.
4r	4r	8c	32a
.	.	.	16.cc
.	.	8d	32f#
.	.	.	16.a
4GG	4d	4B	32g
.	.	.	16.b
.	.	.	8d
4r	4r	8r	8r
.	.	16b	16dd
.	.	16d	16b
=5	=5	=5	=5
8GG	4.G	4d	4b
8G	.	.	.
8G	.	8e	8cc
8G	8G	8e	16b
.	.	.	16cc
8GG	8G	8e	8cc
8G	8c	8f#	8a
8G	8c	8f#	8a
8G	16cc	8f#	16ee
.	16a	.	16cc
=6	=6	=6	=6
8GG	8a	8f#	8cc
8G	8g	8g	8b
8G	8g	8g	8b
8r	8r	16ee	16gg
.	.	16cc	16ee
8G	8g	8b	8dd
8r	8r	16ee	16gg
.	.	16cc	16ee
8G	8g	8b	8dd
8r	8r	16ee	16gg
.	.	16cc	16ee
=7	=7	=7	=7
8G	2g	4b	2dd
4GG	.	.	.
.	.	4b-	.
4GG	.	.	.
.	8e	4.a	8cc#
4FF#	8d	.	8dd
.	8d	.	8cc
8D	8c	8f#	8a
=8	=8	=8	=8
8E	4B	4.g	8g
8BB	.	.	8dd
8C	8c	.	8ee
8AA	8e	8a	8cc
4D	4d	4g	4b
8DD	8D	8f#	8a
8r	8r	8d	8r
=9	=9	=9	=9
4.r	2..r	4g	8r
.	.	.	8B
.	.	32a	8c
.	.	16.cc	.
8D	.	32f#	8c
.	.	16.a	.
4G	.	4g	8B
.	.	.	8dd
32A	.	8f#	8dd
16.c	.	.	.
32F#	8d	8cc	8dd
16.A	.	.	.
=10	=10	=10	=10
32G	4g	8b	[3..dd
16.B	.	.	.
8D	.	8g	.
8r	32a	8f#	.
.	16.cc	.	.
8C	32f#	8d	.
.	16.a	.	.
4BB	4g	4d	.
.	.	.	24dd]
.	.	.	24bb
.	.	.	24ff#
.	.	.	24gg
4r	4r	4r	24bb
.	.	.	24ff#
.	.	.	24gg
.	.	.	24bb
.	.	.	24ff#
.	.	.	24gg
=11	=11	=11	=11
4.C	4.c	2g	4dd#
.	.	.	8ee
8D	8d	.	8dd
4E	4e	2g	16dd
.	.	.	16cc
.	.	.	4cc
4D	4d	.	.
.	.	.	8b
=12	=12	=12	=12
4C	4c	4e	16b
.	.	.	16a
.	.	.	4a
4D	4F#	4c	.
.	.	.	16f#
.	.	.	16d
4G	4G	4B	4g
4r	4r	4r	4r
=13	=13	=13	=13
2E	2e	2e	2e
4D#	4d#	4d#	4d#
4r	4r	8r	16b
.	.	.	8bb
.	.	8d#	.
.	.	.	[16aa
=14	=14	=14	=14
1r	1r	8e	16aa]
.	.	.	8gg
.	.	8f#	.
.	.	.	8ff#
.	.	8g	.
.	.	.	8ee
.	.	8a	.
.	.	.	16ff#
.	.	4b	8dd#
.	.	.	16cc#
.	.	.	16b
.	.	4r	16a#
.	.	.	16b
.	.	.	16cc
.	.	.	16b
=15	=15	=15	=15
1r	1r	1r	16g#
.	.	.	16a
.	.	.	16b
.	.	.	16a
.	.	.	16f#
.	.	.	16g
.	.	.	16a
.	.	.	16g
.	.	.	16f#
.	.	.	16e
.	.	.	16a#
.	.	.	16b
.	.	.	16a
.	.	.	16g
.	.	.	16f#
.	.	.	16e
=16	=16	=16	=16
2D	2d	2d	2d
4C#	4c#	4c#	4c#
4r	4r	8r	16a
.	.	.	8aa
.	.	8c#	.
.	.	.	[16gg
=17	=17	=17	=17
2.r	2.r	8d	16gg]
.	.	.	8ff#
.	.	8e	.
.	.	.	8ee
.	.	8f#	.
.	.	.	8dd
.	.	8g	.
.	.	.	16ee
.	.	4a	8cc#
.	.	.	16b
.	.	.	16a
16AA	[4a	8c#	8a
8A	.	.	.
.	.	8e	8cc#
[16G	.	.	.
=18	=18	=18	=18
16G]	8a]	8a	8dd
8F#	.	.	.
.	8g	8cc#	8ee
8E	.	.	.
.	8f#	8dd	8ff#
8D	.	.	.
.	8d	8dd	8gg#
16BB	.	.	.
16AA	4e	4.cc#	4.aa
16AA	.	.	.
16AA	.	.	.
16AA	.	.	.
16AA	4r	.	.
16AA	.	.	.
16AA	.	8dd	8bb
16AA	.	.	.
=19	=19	=19	=19
16AA	2.r	8b	8gg#
16AA	.	.	.
16AA	.	8cc#	8aa
16AA	.	.	.
16AA	.	8dd#	8ff#
16AA	.	.	.
16AA	.	8ee	8gg
16AA	.	.	.
16AA	.	8cc#	8ee#
16AA	.	.	.
16AA	.	8dd	8ff#
16AA	.	.	.
16AA	8f#	8a	8dd#
16AA	.	.	.
16AA	8g	8b	8ee
16AA	.	.	.
=20	=20	=20	=20
16AA	8e	8g	8cc#
16AA	.	.	.
16AA	8f#	8a	8dd
16AA	.	.	.
16AA	8B	8d	8g#
16AA	.	.	.
16AA	8c#	8e	8a
16AA	.	.	.
16BB-	4d	4e	2g
16BB-	.	.	.
16BB-	.	.	.
16BB-	.	.	.
16C#	4e	[4A	.
16C#	.	.	.
16C#	.	.	.
16C#	.	.	.
=21	=21	=21	=21
16D	16d	8A]	8f#
16D	16d	.	.
16D	16d	8f#	32f#
.	.	.	16.a
16D	16d	.	.
16D	16d	8g	32g
.	.	.	16.b
16D	16d	.	.
16D	16d	8g	32e
.	.	.	16.cc#
16D	16d	.	.
16D	16d	8f#	32f#
.	.	.	16.dd
16D	16d	.	.
16D	16d	8cc#	32cc#
.	.	.	16.ee
16D	16d	.	.
16D	16d	8dd	32dd
.	.	.	16.ff#
16D	16d	.	.
16D	16d	8ee	32ee
.	.	.	16.gg
16D	16d	.	.
=22	=22	=22	=22
4D	4d	4ff#	32ff#
.	.	.	16.aa
.	.	.	32aa
.	.	.	16.ddd
8r	8r	8r	8r
8G	8g	8d	32b
.	.	.	16.bb
8r	8r	8r	8r
8A	8e	8cc#	32g
.	.	.	16.gg
8r	8r	8r	8r
8B	8d	8dd	32f#
.	.	.	16.ff#
=23	=23	=23	=23
8r	8r	8r	8r
8G	8d	8B	8ee
8G	8d	8B	8ee
8G	8d	8B	8ee
4G	8d	4B	4ee
.	8g	.	.
4A	4e	4g	16dd
.	.	.	16cc#
.	.	.	16b
.	.	.	16a
=24	=24	=24	=24
4B	4d	4f#	8dd
.	.	.	8r
4.r	4.r	4.r	16cc#
.	.	.	16dd
.	.	.	16gg
.	.	.	16ff#
.	.	.	8ee
8G	8d	8B	16dd#
.	.	.	16ee
8G	8d	8B	16dd#
.	.	.	16ee
8G	8d	8B	16dd#
.	.	.	16ee
=25	=25	=25	=25
4G	8d	4B	16dd#
.	.	.	16ee
.	8g	.	16ff#
.	.	.	16ee
4A	4e	4g	16dd
.	.	.	16cc#
.	.	.	16b
.	.	.	16a
4D	4d	4f#	8dd
.	.	.	8r
4r	4r	8r	24d
.	.	.	24ff# 24aa
.	.	.	24aa 24ff#
.	.	8dd	24aa 24ff#
.	.	.	24aa 24ff#
.	.	.	24aa 24ff#
=26	=26	=26	=26
4r	4r	8ee	24aa 24gg
.	.	.	24aa 24gg
.	.	.	24aa 24gg
.	.	8gg	24aa 24ee
.	.	.	24ee 24aa
.	.	.	24aa 24ee
8AA	8a	8e	24ccc# 24a
.	.	.	24ccc# 24a
.	.	.	24ccc# 24a
8A	8e	8cc#	24aa 24gg
.	.	.	24aa 24gg
.	.	.	24aa 24gg
4D	4f#	4dd	24ddd 24ff#
.	.	.	24ddd 24ff#
.	.	.	24ddd 24ff#
.	.	.	24aa 24ff#
.	.	.	24aa 24ff#
.	.	.	24aa 24ff#
4r	4r	8r	24d
.	.	.	24aa 24ff#
.	.	.	24aa 24ff#
.	.	8dd	24aa 24ff#
.	.	.	24aa 24ff#
.	.	.	24aa 24ff#
=27	=27	=27	=27
4r	4r	8ee	24aa 24gg
.	.	.	24aa 24gg
.	.	.	24aa 24gg
.	.	8gg	24aa 24ee
.	.	.	24aa 24ee
.	.	.	24aa 24ee
8AA	8a	8e	24ccc# 24a
.	.	.	24ccc# 24a
.	.	.	24ccc# 24a
8A	8e	8cc#	24aa 24gg
.	.	.	24aa 24gg
.	.	.	24aa 24gg
8D	8f#	8dd	24ddd 24ff#
.	.	.	24ddd 24ff#
.	.	.	24ddd 24ff#
8r	8r	8r	24aa 24ff#
.	.	.	24aa 24ff#
.	.	.	24aa 24ff#
8F#	8f#	8aa	24ccc 24dd
.	.	.	24ccc 24dd
.	.	.	24ccc 24dd
8r	8r	8r	24aa 24ff#
.	.	.	24aa 24ff#
.	.	.	24aa 24ff#
=28	=28	=28	=28
8r	8r	8r	6..bb
8G	8g	8dd	.
8G	8g	8dd	.
.	.	.	24ccc#
.	.	.	24aa#
8G	8g	8dd	24bb
.	.	.	24ccc#
.	.	.	24aa#
4G	4g	4dd	24bb
.	.	.	24ggg
.	.	.	24ggg
.	.	.	24ggg
.	.	.	24ggg
.	.	.	24ggg
8r	8r	8r	24ggg
.	.	.	24fff#
.	.	.	24eee
8G	8g	8dd	24ddd
.	.	.	24ccc#
.	.	.	24bb
=29	=29	=29	=29
4F#	8f#	4.dd	24aa
.	.	.	24fff#
.	.	.	24eee
.	8a	.	24ddd
.	.	.	24ccc#
.	.	.	24bb
8E	8b	.	24aa
.	.	.	24bb
.	.	.	24aa
8A	8a	8cc#	8gg
8D	8a	4.dd	24ff#
.	.	.	24fff#
.	.	.	24eee
8F#	8a	.	24ddd
.	.	.	24ccc#
.	.	.	24bb
8E	8b	.	24aa
.	.	.	24bb
.	.	.	24aa
8A	8a	8cc#	8gg
=30	=30	=30	=30
4D	4a	4dd	24ff#
.	.	.	24fff#
.	.	.	24ddd
.	.	.	24aa
.	.	.	24ddd
.	.	.	24aa
2.r	2.r	2.r	24ff#
.	.	.	24aa
.	.	.	24ff#
.	.	.	24dd
.	.	.	24ff#
.	.	.	24dd
.	.	.	8a
.	.	.	8cc 8a
.	.	.	8cc 8a
.	.	.	8a 8cc
=31	=31	=31	=31
4r	4r	4r	4cc 4a
4F#	[4D	4A	4c 4d
4G	4D]	4B	8B 8d
.	.	.	8ddd
4r	4r	4r	8bb
.	.	.	8gg
=32	=32	=32	=32
8A	8A	8dd	24ff#
.	.	.	24ee
.	.	.	24dd
8A	8A	8dd	24cc#
.	.	.	24b
.	.	.	24a
8A	8A	8cc#	4ee
8A	8A	8cc#	.
4D	8d	24d	4dd
.	.	24a 24f#	.
.	.	24a 24f#	.
.	8d	24a 24f#	.
.	.	24a 24f#	.
.	.	24a 24f#	.
8r	8e	24a 24g	8r
.	.	24a 24g	.
.	.	24a 24g	.
8A	8g	24a 24e	8ccc# 8a 8ee
.	.	24a 24e	.
.	.	24a 24e	.
=33	=33	=33	=33
4D	8f#	24d	4ddd 4ff# 4a
.	.	24a 24f#	.
.	.	24a 24f#	.
.	8d	24a 24f#	.
.	.	24a 24f#	.
.	.	24a 24f#	.
8r	8e	24a 24g	8r
.	.	24a 24g	.
.	.	24a 24g	.
8A	8g	24a 24e	8a 8ccc# 8ee
.	.	24a 24e	.
.	.	24a 24e	.
4D	4f#	4a 4f#	4ddd 4ff# 4a
4r	4r	4r	8r
.	.	.	8a
=34	=34	=34	=34
1r	1r	1r	16cc#
.	.	.	16dd
.	.	.	16ee
.	.	.	16dd
.	.	.	16gg
.	.	.	16ff#
.	.	.	16ee
.	.	.	16ff#
.	.	.	16ee
.	.	.	16dd
.	.	.	16cc#
.	.	.	16dd
.	.	.	16cc#
.	.	.	16b
.	.	.	16a
.	.	.	16g
=35	=35	=35	=35
2F#	2f#	2f#	2f#
4G	4g	4g	4g
4r	4r	4r	8r
.	.	.	8b
=36	=36	=36	=36
2..r	2..r	2..r	16dd#
.	.	.	16ee
.	.	.	16ff#
.	.	.	16ee
.	.	.	16gg
.	.	.	16ff#
.	.	.	16aa
.	.	.	16gg
.	.	.	4bb
.	.	.	8aa
8A	8g	8e	8cc#
=37	=37	=37	=37
4D	4f#	8d	4dd
.	.	8f#	.
2.r	2.r	8g	32ee
.	.	.	16.gg
.	.	8a	32cc#
.	.	.	16.ee
.	.	4f#	32dd
.	.	.	16.ff#
.	.	.	8a
.	.	8r	8r
.	.	16ff#	16aa
.	.	16a	16ff#
=38	=38	=38	=38
8DD	4.d	4a	4ff#
8D	.	.	.
8D	.	8b	8gg
8D	8d	8b	16ff#
.	.	.	16gg
8DD	8d	8b	8gg
8D	8g	8cc#	8ee
8D	8g	8cc#	8ee
8D	16g	8cc#	16bb
.	16e	.	16gg
=39	=39	=39	=39
8DD	8e	8cc#	8gg
8D	8d	8dd	8ff#
4D	4d	8dd	8ff#
.	.	16bb	16ddd
.	.	16gg	16bb
2r	2r	4ff#	4aa
.	.	8r	4r
.	.	8a	.
=40	=40	=40	=40
1r	8r	4dd	1r
.	8f#	.	.
.	8g	32ee	.
.	.	16.gg	.
.	8a	32cc#	.
.	.	16.ee	.
.	4d	32dd	.
.	.	16.ff#	.
.	.	8a	.
.	4r	4r	.
=41	=41	=41	=41
2C	2c	2c	2c
4BB	4B	4B	4B
4r	4r	8r	16b
.	.	.	8bb
.	.	8d#	.
.	.	.	[16aa
=42	=42	=42	=42
2.r	2..r	8e	16aa]
.	.	.	8gg
.	.	8f#	.
.	.	.	8ff#
.	.	8g	.
.	.	.	8ee
.	.	8a	.
.	.	.	16ff#
.	.	4b	8dd#
.	.	.	16cc#
.	.	.	16b
16BB	.	8r	8b
8B	.	.	.
.	8B	8f#	8dd#
[16A	.	.	.
=43	=43	=43	=43
16A]	8B	8b	8ee
8G	.	.	.
.	8d#	8a	8ff#
8F#	.	.	.
.	8e	8g	8gg
8E	.	.	.
.	8B	8ee	8gg#
8D	.	.	.
.	8c	8ee	8aa
8C	.	.	.
.	8g#	8dd	8bb
8BB	.	.	.
.	8a	8cc	8ccc
8AA	.	.	.
.	8A	8e	8cc
[16G	.	.	.
=44	=44	=44	=44
16G]	8A	8a	8dd
8F#	.	.	.
.	8c#	8g	8ee
8E	.	.	.
.	8d	8f#	8ff#
8D	.	.	.
.	8A	8dd	8ff#
8C	.	.	.
.	8B	8dd	8gg
8BB	.	.	.
.	8f#	8cc	8aa
8AA	.	.	.
.	8g	8b	8bb
8GG	.	.	.
.	8G	8d	8b
[16F#	.	.	.
=45	=45	=45	=45
16F#]	8G	8g	8cc
8E	.	.	.
.	8B	8f#	8dd
8D	.	.	.
.	8c	8e	8ee
8C	.	.	.
.	8G	8cc	8ee
8BB	.	.	.
.	8A	8cc	8ff#
8AA	.	.	.
.	8e	8b	8gg
8GG	.	.	.
.	8f#	8a	8aa
8FF#	.	.	.
.	8F#	8c	8a
[16E	.	.	.
=46	=46	=46	=46
16E]	8F#	8f#	8b
8D#	.	.	.
.	8A#	8e	8cc#
8C#	.	.	.
.	8B	8d#	8dd#
8BB	.	.	.
.	8F#	8b	8dd#
8AA	.	.	.
.	8G	8b	8ee
8GG	.	.	.
.	8d#	8a	8ff#
8FF#	.	.	.
.	8e	8g	8gg
8EE	.	.	.
.	8B	8B	[8b
16B	.	.	.
=47	=47	=47	=47
8c	8c	8c	16b]
.	.	.	8cc
16d	8d	8d	.
16e	.	.	8dd
8e	8e	8e	.
.	.	.	8ee
8G#	8G#	8G#	.
.	.	.	8g#
8A	8A	8A	.
.	.	.	8a
8B	8B	8B	.
.	.	.	8b
8c	8c	8c	.
.	.	.	8cc
8E	8e	8e	.
.	.	.	16e
=48	=48	=48	=48
2D#	2d#	2d#	2d#
4.c	4.cc	4.cc	4.cc
8E	8e	8e	8e
=49	=49	=49	=49
2F	2f	2f	2f
[2c	[2cc	8cc	8cc
.	.	8ee	8gg
.	.	8ee	8gg
.	.	8ee	8gg
=50	=50	=50	=50
8c]	8cc]	8ee	8gg
8C	8c	8c	8c
8C	8c	8c	8c
8C	8c	8c	8c
[2A#	[2a#	8a#	8a#
.	.	8ee	8gg
.	.	8ee	8gg
.	.	8ee	8gg
=51	=51	=51	=51
8A#]	8a#]	8ee	8gg
8AA#	8A#	8A#	8A#
8AA#	8A#	8A#	8A#
8AA#	8A#	8A#	8A#
[2BB	[2B	8B	8B
.	.	8ee	8gg
.	.	8ee	8gg
.	.	8ee	8gg
=52	=52	=52	=52
16BB]	4B]	8ee	8gg
16BB	.	.	.
16BB	.	8dd#	8ff#
16BB	.	.	.
16BB	2.r	8gg	8bb
16BB	.	.	.
16BB	.	8aa	8ccc
16BB	.	.	.
16BB	.	8ff#	8aa#
16BB	.	.	.
16BB	.	8gg	8bb
16BB	.	.	.
16BB	.	8ee#	8gg#
16BB	.	.	.
16BB	.	8ff#	8aa
16BB	.	.	.
=53	=53	=53	=53
16BB	8a	8dd#	8ff#
16BB	.	.	.
16BB	8g	8ee	8gg
16BB	.	.	.
16BB	8f#	8a	8dd#
16BB	.	.	.
16BB	8g	8b	8ee
16BB	.	.	.
16BB	4c#	4e	4a#
16BB	.	.	.
16BB	.	.	.
16BB	.	.	.
16BB	4d#	4f#	4a
16BB	.	.	.
16BB	.	.	.
16BB	.	.	.
=54	=54	=54	=54
16E	16B	8e	8g
16E	16e	.	.
16E	16e	8g	32g
.	.	.	16.b
16E	16e	.	.
16E	16e	8a	32a
.	.	.	16.cc
16E	16e	.	.
16E	16e	8a	32f#
.	.	.	16.dd#
16E	16e	.	.
16E	16e	8g	32g
.	.	.	16.ee
16E	16e	.	.
16E	16e	8dd#	32dd#
.	.	.	16.ff#
16E	16e	.	.
16E	16e	8ee	32ee
.	.	.	16.gg
16E	16e	.	.
16E	16e	8ff#	32ff#
.	.	.	16.aa
16E	16e	.	.
=55	=55	=55	=55
4E	4e	4gg	32gg
.	.	.	16.bb
.	.	.	32bb
.	.	.	16.eee
8r	8r	8r	8r
8A	8a	8e	32cc
.	.	.	16.ccc
8r	8r	8r	8r
8B	8f#	8dd#	32a
.	.	.	16.aa
8r	8r	8r	8r
8c	8e	8ee	32g
.	.	.	16.gg
=56	=56	=56	=56
8r	8r	8r	8r
8A	8e	8c	8ff#
8A	8e	8c	8ff#
8A	8e	8c	8ff#
4A	8e	4c	4ff#
.	8a	.	.
4B	4f#	4a	8dd#
.	.	.	16cc#
.	.	.	16b
=57	=57	=57	=57
4c	4e	4g	8ee
.	.	.	8r
4.r	4.r	4.r	16dd#
.	.	.	16ee
.	.	.	16aa
.	.	.	16gg
.	.	.	8ff#
8A	8e	8c	16ee#
.	.	.	16ff#
8A	8e	8c	16ee#
.	.	.	16ff#
8A	8e	8c	16ee#
.	.	.	16ff#
=58	=58	=58	=58
4A	8e	4c	16ee#
.	.	.	16ff#
.	8a	.	16aa
.	.	.	16ff#
4B	4f#	4a	16ee
.	.	.	16dd#
.	.	.	16cc#
.	.	.	16b
4E	4e	4g	8ee
.	.	.	8r
4r	4r	4r	16dd#
.	.	.	16ee
.	.	.	16ff#
.	.	.	16ee
=59	=59	=59	=59
2.r	2.r	2.r	16gg
.	.	.	16ff#
.	.	.	16aa
.	.	.	16gg
.	.	.	16bb
.	.	.	16aa
.	.	.	16gg
.	.	.	16ff#
.	.	.	16ee
.	.	.	16dd#
.	.	.	16ff#
.	.	.	16ee
4G	4B	4e	16gg
.	.	.	16ff#
.	.	.	16aa
.	.	.	16gg
=60	=60	=60	=60
2.r	2.r	2.r	16ff#
.	.	.	16ee
.	.	.	16dd#
.	.	.	16ee
.	.	.	16ff#
.	.	.	16ee
.	.	.	16gg
.	.	.	16ff#
.	.	.	16ee
.	.	.	16dd
.	.	.	16cc
.	.	.	16b
4A	4c	4e	16dd
.	.	.	16cc
.	.	.	16ee
.	.	.	16dd
=61	=61	=61	=61
2.r	2.r	2.r	16ff
.	.	.	16ee
.	.	.	16dd
.	.	.	16cc
.	.	.	16b
.	.	.	16cc
.	.	.	16dd
.	.	.	16cc
.	.	.	16b
.	.	.	16a
.	.	.	16g#
.	.	.	16a
4C	4e	4A	16b
.	.	.	16a
.	.	.	16cc
.	.	.	16b
=62	=62	=62	=62
2.r	2.r	2.r	16dd
.	.	.	16cc
.	.	.	16ee
.	.	.	16b
.	.	.	8cc
.	.	.	16b
.	.	.	16a
.	.	.	16g
.	.	.	16f#
.	.	.	16a
.	.	.	16g
4D	4A	4c	16b
.	.	.	16a
.	.	.	16cc
.	.	.	16b
=63	=63	=63	=63
2.r	2.r	2.r	16dd
.	.	.	16cc
.	.	.	16bb
.	.	.	16aa
.	.	.	16gg
.	.	.	16ff#
.	.	.	16ee
.	.	.	16dd
.	.	.	16cc#
.	.	.	16dd
.	.	.	16ee
.	.	.	16dd
4F#	4A	4d	16ff#
.	.	.	16ee
.	.	.	16gg
.	.	.	16ff#
=64	=64	=64	=64
1r	1r	1r	16aa
.	.	.	16gg
.	.	.	16ff#
.	.	.	16ee
.	.	.	16dd
.	.	.	16cc#
.	.	.	16ee
.	.	.	16dd
.	.	.	16ff#
.	.	.	16ee
.	.	.	16gg
.	.	.	16ff#
.	.	.	16aa
.	.	.	16gg
.	.	.	16bb
.	.	.	16aa
=65	=65	=65	=65
4F#	4A	4d	8ccc
.	.	.	8bb
2.r	2.r	2.r	8ddd
.	.	.	8ccc
.	.	.	8bb
.	.	.	8aa
.	.	.	8gg
.	.	.	8ff#
=66	=66	=66	=66
2.r	2.r	2.r	8ee
.	.	.	8dd
.	.	.	16cc#
.	.	.	16dd
.	.	.	16ee
.	.	.	16dd
.	.	.	[2dd
4F#	4A	4d	.
=67	=67	=67	=67
1r	1r	1r	8dd]
.	.	.	8dd
.	.	.	8ee
.	.	.	8b
.	.	.	8dd
.	.	.	8cc
.	.	.	16b
.	.	.	16cc
.	.	.	16dd
.	.	.	16cc
=68	=68	=68	=68
1r	1r	1r	2..cc
.	.	.	8d
=69	=69	=69	=69
4.r	4.r	8r	4g
.	.	8B	.
.	.	8c	32a
.	.	.	16.cc
8D	8f#	8c	32f#
.	.	.	16.a
4G	4g	4B	32g
.	.	.	16.b
.	.	.	8d
4r	4r	8r	8r
.	.	16b	16dd
.	.	16d	16b
=70	=70	=70	=70
8GG	4.G	4d	4b
8G	.	.	.
8G	.	8e	8cc
8G	8G	8e	16b
.	.	.	16cc
8GG	8G	8e	8cc
8G	8c	8f#	8a
8G	8c	8f#	8a
8G	16cc	8f#	16ee
.	16a	.	16cc
=71	=71	=71	=71
8GG	8a	8f#	8cc
8G	8g	8g	8b
4G	4g	8g	8b
.	.	16ee	16gg
.	.	16cc	16ee
2r	2r	4b	4dd
.	.	4r	8r
.	.	.	8d
=72	=72	=72	=72
1r	1r	8r	4g
.	.	8B-	.
.	.	8c	32a
.	.	.	16.cc
.	.	8d	32f#
.	.	.	16.a
.	.	4G	32g
.	.	.	16.b-
.	.	.	8d
.	.	4r	4r
=73	=73	=73	=73
2E-	2e-	2e-	2e-
4BB	4B	4B	4B
4r	8b	8ff	8gg
.	8b	8ff	8gg
=74	=74	=74	=74
2.r	8cc	8ee-	8gg
.	8cc	8ee-	8gg
.	8d	8b	8gg
.	8d	8b	8gg
.	8e-	8cc	8gg
.	8e-	8cc	8gg
8BB	8d	8ff	8gg
8BB	8d	8ff	8gg
=75	=75	=75	=75
8C	8c	8ee-	8gg
8C	8c	8ee-	8gg
8D	8d	8dd	8gg
8D	8d	8dd	8gg
2E-	2e-	8cc#	8gg
.	.	8b-	8cc#
.	.	8a	8cc#
.	.	8g	8cc#
=76	=76	=76	=76
16D	4d	8f#	8dd
16D	.	.	.
16D	.	8g	8ee
16D	.	.	.
16D	8cc	8a	8ff#
16D	.	.	.
16D	8b	8b	8gg
16D	.	.	.
16D	8a	8cc	8aa
16D	.	.	.
16D	8g	8dd	8bb
16D	.	.	.
16D	8f#	8ee	8ccc
16D	.	.	.
16D	8cc	8ff#	8aa
16D	.	.	.
=77	=77	=77	=77
16G	16b	8gg	8bb
16G	16g	.	.
16G	16g	8b	32b
.	.	.	16.dd
16G	16g	.	.
16G	16g	8cc	32cc
.	.	.	16.ee
16G	16g	.	.
16G	16g	8cc	32a
.	.	.	16.ff#
16G	16g	.	.
16G	16g	8b	32b
.	.	.	16.gg
16G	16g	.	.
16G	16g	8ff#	32ff#
.	.	.	16.aa
16G	16g	.	.
16G	16g	8gg	32gg
.	.	.	16.bb
16G	16g	.	.
16G	16g	8aa	32aa
.	.	.	16.ccc
16G	16g	.	.
=78	=78	=78	=78
4GG	4g	4bb	32bb
.	.	.	16.ddd
.	.	.	32dd
.	.	.	16.gg
8r	8r	8r	8r
8C	8cc	8g	32e
.	.	.	16.ee
8r	8r	8r	8r
8D	8a	8f#	32c
.	.	.	16.cc
8r	8r	8r	8r
8E	8g	8g	32B
.	.	.	16.b
=79	=79	=79	=79
8r	8r	8r	8r
8C	8E	8G	8a
8C	8E	8G	8a
8C	8E	8G	8a
4C	4E	8G	4a
.	.	8c	.
4D	4c	4A	16g
.	.	.	16f#
.	.	.	16e
.	.	.	16d
=80	=80	=80	=80
4E	4B	4G	8g
.	.	.	8r
4.r	4.r	4.r	16f#
.	.	.	16g
.	.	.	16cc
.	.	.	16b
.	.	.	8a
8C	8E	8G	16g#
.	.	.	16a
8C	8E	8G	16g#
.	.	.	16a
8C	8E	8G	16g#
.	.	.	16a
=81	=81	=81	=81
4C	4E	8G	16g#
.	.	.	16a
.	.	8c	16b
.	.	.	16a
4D	4c	4A	16g
.	.	.	16f#
.	.	.	16e
.	.	.	16d
4GG	4B	4G	8g
.	.	.	8r
4r	4r	8r	24G
.	.	.	24dd 24b
.	.	.	24dd 24b
.	.	8g	24dd 24b
.	.	.	24dd 24b
.	.	.	24dd 24b
=82	=82	=82	=82
4r	4r	8a	24dd 24cc
.	.	.	24dd 24cc
.	.	.	24dd 24cc
.	.	8cc	24dd 24a
.	.	.	24dd 24a
.	.	.	24dd 24a
8DD	8d	8A	24ff# 24d
.	.	.	24ff# 24d
.	.	.	24ff# 24d
8D	8A	8f#	24dd 24cc
.	.	.	24dd 24cc
.	.	.	24dd 24cc
4GG	4B	4g	24gg 24b
.	.	.	24gg 24b
.	.	.	24gg 24b
.	.	.	24dd 24b
.	.	.	24dd 24b
.	.	.	24dd 24b
4r	4r	8r	24G
.	.	.	24dd 24b
.	.	.	24dd 24b
.	.	8g	24dd 24b
.	.	.	24dd 24b
.	.	.	24dd 24b
=83	=83	=83	=83
4r	4r	8a	24dd 24cc
.	.	.	24dd 24cc
.	.	.	24dd 24cc
.	.	8cc	24dd 24a
.	.	.	24dd 24a
.	.	.	24dd 24a
8DD	8d	8A	24ff# 24d
.	.	.	24ff# 24d
.	.	.	24ff# 24d
8D	8A	8f#	24dd 24cc
.	.	.	24dd 24cc
.	.	.	24dd 24cc
8GG	8B	8g	24gg 24b
.	.	.	24gg 24b
.	.	.	24gg 24b
8r	8r	8r	24dd 24b
.	.	.	24dd 24b
.	.	.	24dd 24b
8BB	8B	8dd	24ff 24g
.	.	.	24ff 24g
.	.	.	24ff 24g
8r	8r	8r	24dd 24b
.	.	.	24dd 24b
.	.	.	24dd 24b
=84	=84	=84	=84
8r	8r	8r	6..ee
8C	8c	8g	.
8C	8c	8g	.
.	.	.	24ff#
.	.	.	24dd#
8C	8c	8g	24ee
.	.	.	24ff#
.	.	.	24dd#
4C	4c	4g	24ee
.	.	.	24ccc
.	.	.	24ccc
.	.	.	24ccc
.	.	.	24ccc
.	.	.	24ccc
8r	8r	8r	24ccc
.	.	.	24bb
.	.	.	24aa
8C	8c	8g	24gg
.	.	.	24ff#
.	.	.	24ee
=85	=85	=85	=85
4BB	8B	4.g	24dd
.	.	.	24bb
.	.	.	24aa
.	8d	.	24gg
.	.	.	24ff#
.	.	.	24ee
8AA	8e	.	24dd
.	.	.	24ee
.	.	.	24dd
8D	8d	8f#	8cc
8GG	8d	4.g	24b
.	.	.	24bb
.	.	.	24aa
8BB	8d	.	24gg
.	.	.	24ff#
.	.	.	24ee
8AA	8e	.	24dd
.	.	.	24ee
.	.	.	24dd
8D	8d	8f#	8cc
=86	=86	=86	=86
4GG	4d	4g	24b
.	.	.	24bb
.	.	.	24gg
.	.	.	24dd
.	.	.	24gg
.	.	.	24dd
2.r	2.r	2.r	24b
.	.	.	24dd
.	.	.	24b
.	.	.	24g
.	.	.	24b
.	.	.	24g
.	.	.	8d
.	.	.	8f 8d
.	.	.	8d 8f
.	.	.	8f 8d
=87	=87	=87	=87
4r	4r	4r	4d 4f
4BB	[4G	4f	4d 4G
4C	4G]	4e	8e
.	.	.	8gg
4r	4r	4r	8ee
.	.	.	8cc
=88	=88	=88	=88
8D	8d	8g	24b
.	.	.	24a
.	.	.	24g
8D	8d	8g	24f#
.	.	.	24e
.	.	.	24d
8D	8d	8f#	4a
8D	8d	8f#	.
4GG	8G	24G	4g
.	.	24d 24B	.
.	.	24d 24B	.
.	8G	24d 24B	.
.	.	24d 24B	.
.	.	24d 24B	.
8r	8A	24d 24c	8r
.	.	24d 24c	.
.	.	24d 24c	.
8D	8c	24d 24A	8d 8ff# 8a
.	.	24d 24A	.
.	.	24d 24A	.
=89	=89	=89	=89
4GG	8B	24G	4gg 4b 4d
.	.	24d 24B	.
.	.	24d 24B	.
.	8G	24d 24B	.
.	.	24d 24B	.
.	.	24d 24B	.
8r	8A	24d 24c	8r
.	.	24d 24c	.
.	.	24d 24c	.
8D	8c	24d 24A	8ff# 8a 8d
.	.	24d 24A	.
.	.	24d 24A	.
4GG	4B	4d 4B	4gg 4b 4d
4r	4r	4r	4r
==	==	==	==
*-	*-	*-	*-
!!!RWG1: This file contains only pitch and duration data.
!!!RWG2: Transposing instruments are not transposed.
!!!RWG3: Spines may have incompatible meters.
!!!RWG4: Durations of rests and tied notes may be interpreted.
!!!RWG: Key is interpreted using the Humdrum key tool.
!!!GTL: 6 Divertimentos
!!!OPT: Recitative
!!!AFT: stage1
!!!END: 1997/04/15
!!!KEY: 2778085403
!!!EMD: Converted from MuseData to Humdrum Dec 16, 2000, by Andreas Kornstaedt using muse2kern.
!!!EMD: Manual editing by Craig Sapp, Nov 2001
